src/assets/duotone/Backward5Seconds.svg

<?xml version="1.0" encoding="UTF-8"?>
<svg width="24" height="24" viewBox="0 0 24 24" xmlns="http://www.w3.org/2000/svg">
 <path d="m12.38 16.92h-2.29c-0.40998 0-0.74998-0.34-0.74998-0.75s0.34-0.75 0.74998-0.75h2.29c0.43 0 0.78-0.3499 0.78-0.7799s-0.35-0.7801-0.78-0.7801h-2.29c-0.23998 0-0.46997-0.12-0.60997-0.31s-0.18-0.4499-0.1-0.6799l0.75997-2.29c0.1-0.31 0.39-0.51 0.71-0.51h3.06c0.41 0 0.75 0.34 0.75 0.75s-0.34 0.75-0.75 0.75h-2.52l-0.26 0.7899h1.25c1.26 0 2.28 1.0201 2.28 2.2801s-1.02 2.2799-2.28 2.2799z"/>
 <path d="m12 3.4799c-0.08 0-0.1599 0.01001-0.2399 0.01001l0.8199-1.02c0.26-0.32 0.21-0.79999-0.12-1.05s-0.7899-0.21-1.0499 0.12l-1.9801 2.47c-0.01 0.01-0.00999 0.02998-0.01999 0.03998-0.03 0.04-0.05001 0.09001-0.07001 0.14001-0.02 0.04-0.03998 0.08001-0.04998 0.13001s-0.01001 0.09001-0.01001 0.14001v0.14996 0.04999c0.01 0.03 0.03 0.06003 0.04 0.09003 0.02 0.05 0.04 0.09001 0.06 0.14001 0.03 0.04 0.06 0.07999 0.09 0.10999 0.02 0.03 0.04001 0.06001 0.07001 0.08001 0.01 0.01 0.02998 0.01997 0.04998 0.02997 0.03 0.02 0.06002 0.02999 0.08002 0.04999 0.05 0.03 0.10998 0.05 0.16998 0.06 0.03 0.01 0.06 0.01002 0.09 0.02002 0.03 0 0.05002 0.01001 0.08006 0.01001 0.03 0 0.0499-0.01002 0.0699-0.02002 0.03 0 0.0601 0.01 0.0901 0 0.64-0.15 1.24-0.21997 1.81-0.21997 4.49 0 8.1399 3.65 8.1399 8.14 0 4.49-3.6499 8.1399-8.1399 8.1399-4.49 0-8.1401-3.6499-8.1401-8.1399 0-1.74 0.57-3.4201 1.65-4.8601 0.25-0.33 0.18-0.79999-0.15-1.05s-0.79998-0.17998-1.05 0.15002c-1.28 1.7-1.95 3.69-1.95 5.76 0 5.31 4.32 9.6399 9.6401 9.6399 5.32 0 9.6399-4.3199 9.6399-9.6399 0-5.32-4.31-9.6701-9.62-9.6701z" opacity=".4"/>
</svg>

<svg width="24" height="24" viewBox="0 0 24 24"  xmlns="http://www.w3.org/2000/svg">
<path d="M12.3801 16.92H10.0901C9.68012 16.92 9.34012 16.58 9.34012 16.17C9.34012 15.76 9.68012 15.42 10.0901 15.42H12.3801C12.8101 15.42 13.1601 15.0701 13.1601 14.6401C13.1601 14.2101 12.8101 13.86 12.3801 13.86H10.0901C9.85012 13.86 9.62013 13.74 9.48013 13.55C9.34013 13.36 9.30013 13.1001 9.38013 12.8701L10.1401 10.5801C10.2401 10.2701 10.5301 10.0701 10.8501 10.0701H13.9101C14.3201 10.0701 14.6601 10.4101 14.6601 10.8201C14.6601 11.2301 14.3201 11.5701 13.9101 11.5701H11.3901L11.1301 12.36H12.3801C13.6401 12.36 14.6601 13.3801 14.6601 14.6401C14.6601 15.9001 13.6401 16.92 12.3801 16.92Z" />
<path opacity="0.4" d="M11.9998 3.47994C11.9198 3.47994 11.8399 3.48995 11.7599 3.48995L12.5798 2.46993C12.8398 2.14993 12.7898 1.66994 12.4598 1.41994C12.1298 1.16994 11.6699 1.20994 11.4099 1.53994L9.42984 4.00997C9.41984 4.01997 9.41985 4.03995 9.40985 4.04995C9.37985 4.08995 9.35984 4.13996 9.33984 4.18996C9.31984 4.22996 9.29986 4.26997 9.28986 4.31997C9.27986 4.36997 9.27985 4.40998 9.27985 4.45998C9.27985 4.50998 9.27985 4.55994 9.27985 4.60994C9.27985 4.62994 9.27985 4.63993 9.27985 4.65993C9.28985 4.68993 9.30985 4.71996 9.31985 4.74996C9.33985 4.79996 9.35985 4.83997 9.37985 4.88997C9.40985 4.92997 9.43985 4.96996 9.46985 4.99996C9.48985 5.02996 9.50986 5.05997 9.53986 5.07997C9.54986 5.08997 9.56984 5.09994 9.58984 5.10994C9.61984 5.12994 9.64986 5.13993 9.66986 5.15993C9.71986 5.18993 9.77984 5.20993 9.83984 5.21993C9.86984 5.22993 9.89984 5.22995 9.92984 5.23995C9.95984 5.23995 9.97986 5.24996 10.0099 5.24996C10.0399 5.24996 10.0598 5.23994 10.0798 5.22994C10.1098 5.22994 10.1399 5.23994 10.1699 5.22994C10.8099 5.07994 11.4099 5.00997 11.9799 5.00997C16.4699 5.00997 20.1198 8.65998 20.1198 13.15C20.1198 17.64 16.4699 21.2899 11.9799 21.2899C7.48986 21.2899 3.83984 17.64 3.83984 13.15C3.83984 11.41 4.40984 9.72994 5.48984 8.28994C5.73984 7.95994 5.66984 7.48995 5.33984 7.23995C5.00984 6.98995 4.53986 7.05997 4.28986 7.38997C3.00986 9.08997 2.33984 11.08 2.33984 13.15C2.33984 18.46 6.65986 22.7899 11.9799 22.7899C17.2999 22.7899 21.6198 18.47 21.6198 13.15C21.6198 7.82998 17.3098 3.47994 11.9998 3.47994Z" />
</svg>
